X:1
T:Happy roon' the Ingle Bleezin'
M:2/4
L:1/8
K:G
 Bd BG| G3/2 A/2 Bc| Bd cB| AG E2| Bd BG| G3/2 A/2 Bc| d3/2 D/2 DB|\
 A3/2 G/2 G2|
